X:1
T:Twilight Is Falling
T:Benjamin Carl Unseld
T:Twilight Is Falling
T:Public Domain
T:Public Domain
C:Benjamin Carl Unseld
Z:Public Domain
%%score ( 1 2 ) 3
L:1/8
M:4/4
K:G
V:1 treble 
V:2 treble 
V:3 bass 
V:1
 [DG]2 [DG]>[DA] [GB]2 [Gd]2 | [DG]2 [GB]>[GB] [FA]4 | [DF]2 [DF]>[DG] [FA]2 [Fc]2 | %3
w: 1.~Twi- light is fall- ing|o- ver the sea,|Sha- dows are steal- ing|
w: 2.~Voic- es of loved ones,|songs of the past,|Still lin- ger round me|
w: 3.~Come in the twi- light,|come, come to me!|Bring- ing some mess- age|
 [Ac]2 [GB]>[FA] [GB]4 | [DG]2 [DG]>[DA] [GB]2 [Gd]2 | [DG]2 [GB]>[GB] [FA]4 | %6
w: dark on the lea;|Borne on the night winds,|voic- es of yore|
w: while life shall last;|Lone- ly I wan- der,|sad- ly I roam,|
w: o- ver the sea,|Cheer- ing my path- way|while here I roam,|
 [DF]2 [DF]>[DG] [FA]2 [FB]2 | G6 z2 ||"^Refrain" [Gd]2 [Gd]2 [GB]3 [Gd] | [Ge][Gd][Gd][GB] [FA]4 | %10
w: Come from the far off|shore.|||
w: Seek- ing that far off|home.|a- way be- yond|the star- lit skies, Where|
w: Seek- ing that far off|home.|||
 [FA]2 [FA]2 [Fd]3 [FA] | [Ac][GB][GB][FA] | G4 |] %13
w: |||
w: the love- light ne-|ver, ne- ver dies,||
w: |||
V:2
 x8 | x8 | x8 | x8 | x8 | x8 | x8 | G6 x2 || x8 | x8 | x8 | x4 | G4 |] %13
w: |||||||||||||
w: |||||||Far||||||
V:3
 [G,B,]2 [G,B,]>[G,C] [G,D]2 [G,B,]2 | [G,B,]2 [G,D]>[G,D] [D,D]4 | %2
w: ~ ~ ~ ~ ~|~ ~ ~ ~|
 [D,A,]2 [D,A,]>[D,B,] [D,C]2 [D,D]2 | [D,D]2 [D,D]>[D,D] [G,D]4 | %4
w: ~ ~ ~ ~ ~|~ ~ ~ ~|
 [G,B,]2 [G,B,]>[G,C] [G,D]2 [G,B,]2 | [G,B,]2 [G,D]>[G,D] [D,D]4 | %6
w: Gleam- eth a man- sion,|filled with de- light,|
 [D,A,]2 [D,A,]>[D,B,] [D,C]2 [D,D]2 | [G,B,]6 z2 || [G,B,]2 [G,B,]2 [G,D]3 [G,B,] | %9
w: Sweet hap- py home so|bright!||
 [G,C][G,B,][G,B,][G,D] [D,D]4 | [D,D]2 [D,D]2 [D,A,]3 [D,D] | [D,D][D,D][D,D][D,C] | [G,B,]4 |] %13
w: ||||

